X: 9167
T: Dálaigh's
R: polka
M: 2/4
K: Adorian
|:G|A2 Bd|ea ag|eg/e/ dB|AB G2|
A>B cd|ea ag|eg/e/ dB|1 BA A:|2 BA A2||
|:ea ab|d’b ag|ea ab|d’b g2|
ea ab|d’b ag|eg/e/ dB|1 BA Ad:|2 BA A||
|:G|A2 B/c/d|ea- ag|e^d/e/ =dB|AB G>E|
AA/B/ cd|ea ag|eg dB|1 A2 A:|2 A2 A2||
|:EA AB|dB AG|EA- AB|dB G2|
EA AB|dB A/B/A/G/|EG/E/ D[B,G]|1 [B,B][A,A] AD:|2 [B,B][A,A] A||

